X: 11
T:Ty Crwn
T:The Round House
M:6/8
L:1/8
Q:130
S:Band y Brodyr
R:Jig
A:Wales
Z:brian_martin12345@yahoo.com
K:D
A|d2d dcB|A3B3|d3e3|fgfe2d|
f2f fed|B3d2B|A2d cde|d3-d2:||
d/e/|f2f fed|e3e2c|d2d dcd|e3e2d/e/|
f2f fef|g3f2f|efed2c|d3-d2:||
